X: 28
T: No_126_Moccasin_Game_Song.krn
%%abc-version 2.0
%%abcx-abcm2ps-target-version 5.9.1 (29 Sep 2008)
%%abc-creator hum2abc beta
%%abcx-conversion-date 2020/08/10 18:54:57
%%gracespace 0 6 6
%%humdrum-veritas 2834541628
%%humdrum-veritas-data 1321078663
%%linebreak <none>
%%barnumbers 0
L: 1/16
M: 3/4
%%staves {1 2}
V: 1 clef=bass
V: 2 clef=bass
K: Gb
[V:1] [K:clef=bass][M:3/4]E2>B,2E7E | 
[V:2] [K:clef=bass][M:3/4]!accent!G,,2 z G,, !accent!G,,2 z G,, !accent!G,,2 z G,, | 
[V:1] B,2>A,2B,7C | 
[V:2] z12 | 
[V:1] A,2>G,2A,7B, | 
[V:2] z12 | 
[V:1] G,2(3:2:2E,E,2G,7A, | 
[V:2] z12 | 
[V:1] G,2(3:2:2E,E,2E,8 | 
[V:2] z12 | 
[V:1] E,2>E,2E,7A, | 
[V:2] z12 | 
[V:1] A,2>G,2A,7B, | 
[V:2] z12 | 
[V:1] G,2(3:2:2E,E,2G,7G, | 
[V:2] z12 | 
[V:1] G,2(3:2:2E,E,2E,8 |]  
[V:2] z12 |]  


